X: 45
M:2/4
L:1/16
K:D
(uFG) |\
|: (ude) |\
fede fagf | edcd efge | fede fgaf | edcB A2g2 |
fede fgaf | edcd efge | fafd egec | d2d2d2 :|


